X: 4071
T: Blind Harbour
R: slip jig
M: 9/8
K: Dmajor
|:B,3- B,2D- DDA,|B,3- B,2A, A,B,D|FDE- E6|DE/F/A BAF FDA,|
B,3- B,2D- DDA,|B,3- B,2A, A,B,D|E6- E3|1 DE/F/A BAF FDA,:|2 DE/F/A B2A Bde||
|:f3- f2c- c2d|B3 BAF ABd|f3- f2c- c2d|B3 BAF ABd|
e3 f2d- d2A|B3 d2F- F2D|E6- E3|1 DE/F/A B2A Bde:|2 DE/F/A BAF FDA,||

